images/faviconAddison.svg

<svg version="1.1" viewBox="0 0 647.78 124.67" xmlns="http://www.w3.org/2000/svg">
	<defs>
		<clipPath id="clipPath18">
			<path d="m0 6.1035e-5h612v792h-612z" style="clip-rule:evenodd"/>
		</clipPath>
		<clipPath id="clipPath28">
			<path d="m0 0h492.86v99.863h-492.86z"/>
		</clipPath>
		<clipPath>
			<path d="m9.12e-6 0h612v792h-612z" style="clip-rule:evenodd"/>
		</clipPath>
	</defs>
	<g transform="matrix(1.3386 0 0 -1.3333 -103.34 955.58)">
		<g clip-path="url(#clipPath18)">
			<g transform="matrix(6.8347,-7.54e-7,-9.4e-8,1.375,72.06,620.94)">
				<g transform="scale(.14609 .72099)">
					<g clip-path="url(#clipPath28)">
						<path d="m377.49 57.5h108.16" style="fill:none;stroke-linecap:round;stroke-linejoin:round;stroke-miterlimit:10;stroke-width:4.32;stroke:#00f"/>
						<path d="m380.66 66.729h101.24" style="fill:none;stroke-linecap:round;stroke-linejoin:round;stroke-miterlimit:10;stroke-width:4.32;stroke:#00f"/>
						<path d="m387.58 75.959h87.97" style="fill:none;stroke-linecap:round;stroke-linejoin:round;stroke-miterlimit:10;stroke-width:4.32;stroke:#00f"/>
						<path d="m399.12 85.189h65.62" style="fill:none;stroke-linecap:round;stroke-linejoin:round;stroke-miterlimit:10;stroke-width:4.32;stroke:#00f"/>
						<path d="m418.82 94.418h26.83" style="fill:none;stroke-linecap:round;stroke-linejoin:round;stroke-miterlimit:10;stroke-width:4.32;stroke:#00f"/>
						<path d="m484.78 39.553h-108.16" style="fill:none;stroke-linecap:round;stroke-linejoin:round;stroke-miterlimit:10;stroke-width:.75;stroke:#00f"/>
						<path d="m481.61 30.323h-101.24" style="fill:none;stroke-linecap:round;stroke-linejoin:round;stroke-miterlimit:10;stroke-width:.75;stroke:#00f"/>
						<path d="m474.69 21.094h-87.97" style="fill:none;stroke-linecap:round;stroke-linejoin:round;stroke-miterlimit:10;stroke-width:.75;stroke:#00f"/>
						<path d="m463.15 11.864h-65.62" style="fill:none;stroke-linecap:round;stroke-linejoin:round;stroke-miterlimit:10;stroke-width:.75;stroke:#00f"/>
						<path d="m445.65 2.6345h-26.83" style="fill:none;stroke-linecap:round;stroke-linejoin:round;stroke-miterlimit:10;stroke-width:.75;stroke:#00f"/>
					</g>
				</g>
			</g>
		</g>
	</g>
</svg>

<?xml version="1.0" encoding="UTF-8" standalone="no"?>
<svg
   version="1.1"
   viewBox="0 0 150.33706 124.6685"
   id="svg17"
   sodipodi:docname="faviconAddison.svg"
   width="150.33707"
   height="124.6685"
   inkscape:version="1.3 (0e150ed6c4, 2023-07-21)"
   xmlns:inkscape="http://www.inkscape.org/namespaces/inkscape"
   xmlns:sodipodi="http://sodipodi.sourceforge.net/DTD/sodipodi-0.dtd"
   xmlns="http://www.w3.org/2000/svg"
   xmlns:svg="http://www.w3.org/2000/svg">
  <sodipodi:namedview
     id="namedview17"
     pagecolor="#ffffff"
     bordercolor="#666666"
     borderopacity="1.0"
     inkscape:showpageshadow="2"
     inkscape:pageopacity="0.0"
     inkscape:pagecheckerboard="0"
     inkscape:deskcolor="#d1d1d1"
     inkscape:zoom="3.1538484"
     inkscape:cx="-170.74378"
     inkscape:cy="62.304834"
     inkscape:window-width="2560"
     inkscape:window-height="1017"
     inkscape:window-x="1912"
     inkscape:window-y="-8"
     inkscape:window-maximized="1"
     inkscape:current-layer="svg17" />
  <defs
     id="defs3">
    <clipPath
       id="clipPath18">
      <path
         d="M 0,6.1035e-5 H 612 V 792.00006 H 0 Z"
         style="clip-rule:evenodd"
         id="path1" />
    </clipPath>
    <clipPath
       id="clipPath28">
      <path
         d="M 0,0 H 492.86 V 99.863 H 0 Z"
         id="path2" />
    </clipPath>
    <clipPath
       id="clipPath3">
      <path
         d="M 9.12e-6,0 H 612.00001 V 792 H 9.12e-6 Z"
         style="clip-rule:evenodd"
         id="path3" />
    </clipPath>
  </defs>
  <g
     transform="matrix(1.3386,0,0,-1.3333,-598.11324,955.5543)"
     id="g17">
    <g
       clip-path="url(#clipPath18)"
       id="g16">
      <g
         transform="matrix(6.8347,-7.54e-7,-9.4e-8,1.375,72.06,620.94)"
         id="g15">
        <g
           transform="scale(0.14609,0.72099)"
           id="g14">
          <g
             clip-path="url(#clipPath28)"
             id="g13">
            <path
               d="M 377.49,57.5 H 485.65"
               style="fill:none;stroke:#0000ff;stroke-width:4.32;stroke-linecap:round;stroke-linejoin:round;stroke-miterlimit:10"
               id="path4" />
            <path
               d="M 380.66,66.729 H 481.9"
               style="fill:none;stroke:#0000ff;stroke-width:4.32;stroke-linecap:round;stroke-linejoin:round;stroke-miterlimit:10"
               id="path5" />
            <path
               d="m 387.58,75.959 h 87.97"
               style="fill:none;stroke:#0000ff;stroke-width:4.32;stroke-linecap:round;stroke-linejoin:round;stroke-miterlimit:10"
               id="path6" />
            <path
               d="m 399.12,85.189 h 65.62"
               style="fill:none;stroke:#0000ff;stroke-width:4.32;stroke-linecap:round;stroke-linejoin:round;stroke-miterlimit:10"
               id="path7" />
            <path
               d="m 418.82,94.418 h 26.83"
               style="fill:none;stroke:#0000ff;stroke-width:4.32;stroke-linecap:round;stroke-linejoin:round;stroke-miterlimit:10"
               id="path8" />
            <path
               d="M 484.78,39.553 H 376.62"
               style="fill:none;stroke:#0000ff;stroke-width:0.75;stroke-linecap:round;stroke-linejoin:round;stroke-miterlimit:10"
               id="path9" />
            <path
               d="M 481.61,30.323 H 380.37"
               style="fill:none;stroke:#0000ff;stroke-width:0.75;stroke-linecap:round;stroke-linejoin:round;stroke-miterlimit:10"
               id="path10" />
            <path
               d="M 474.69,21.094 H 386.72"
               style="fill:none;stroke:#0000ff;stroke-width:0.75;stroke-linecap:round;stroke-linejoin:round;stroke-miterlimit:10"
               id="path11" />
            <path
               d="M 463.15,11.864 H 397.53"
               style="fill:none;stroke:#0000ff;stroke-width:0.75;stroke-linecap:round;stroke-linejoin:round;stroke-miterlimit:10"
               id="path12" />
            <path
               d="M 445.65,2.6345 H 418.82"
               style="fill:none;stroke:#0000ff;stroke-width:0.75;stroke-linecap:round;stroke-linejoin:round;stroke-miterlimit:10"
               id="path13" />
          </g>
        </g>
      </g>
    </g>
  </g>
</svg>
